!!!OTL: Schoen Adelheid Es war einmal ein Kuepper gut,
!!!ARE: Europa, Mitteleuropa, Deutschland (BRD), Rheinland, Muelheim Rh., Paffrath
!!!YOR: 4, S. 55
!!    1838 aufgezeichnet (vor)
!!!SCT: Q0074
!!!YEM: Copyright 1995, estate of Helmut Schaffrath.
**kern
*ICvox
*Ivox
*M3/8
*k[]
*a:
{8e
=1
4e
8a
=2
8a
8g#
8a
=3
4b
16ccn
16b
=4
4a}
{16b
16dd
=5
8ccn
8b
8a
=6
8g#
8fn
8e
=7
8.a
16b
8ccn
=8
4b}
{8b
=9
8b
8a
16b
16ccn
=10
8dd
8ccn
8b
=11
8ccn
8b
8a
=12
8a
8g#}
{8fn
=13
8e
8fn
8g#
=14
8a
8b
8ccn
=15
8b
8a}
==
!!!AGN: Ballade, Entfuehrung, Adelige als Dienstmagd, Wiederfinden
!! Verzierungen (Vorschlaege)
!!!ONB: ESAC (Essen Associative Code) Database: BALLADE
!!!AMT: simple triple
!!!AIN: vox
!!!EED: Helmut Schaffrath
!!!EEV: 1.0
*-
